src/assets/eye-hide.svg

<svg xmlns="http://www.w3.org/2000/svg" fill="none" viewBox="0 0 22 22"><path fill="currentColor" d="m19.0661 10.2809.4387-.2399-.4387.2399Zm0 1.4383.4387.2399-.4387-.2399ZM2.93387 10.2808l.43868.2399-.43868-.2399Zm-.00002 1.4383-.43868.2399.43868-.2399ZM17.7657 7.75089c-.1977-.19278-.5142-.18878-.707.00893-.1928.19772-.1888.51427.0089.70705l.6981-.71598ZM8.83252 15.7279c-.26749-.0685-.53993.0927-.60852.3602-.06858.2675.09266.5399.36015.6085l.24837-.9687ZM13.387 5.81271l-.1294.48297.1294-.48297ZM6.48326 15.3165l-.24594.4353.53401-.844-.28807.4087Zm-3.11071-4.7958C4.84602 7.82647 7.70944 6 11 6V5c-3.66995 0-6.86268 2.03825-8.50482 5.0409l.87737.4798Zm15.25495.9586C17.154 14.1735 14.2906 16 11 16v1c3.67 0 6.8627-2.0382 8.5048-5.0409l-.8773-.4798Zm0-.9584c.1634.2987.1633.6596 0 .9584l.8773.4798a1.99834 1.99834 0 0 0 0-1.9181l-.8773.4799Zm-16.13232-.48a1.99834 1.99834 0 0 0-.00001 1.9181l.87737-.4799a.9982.9982 0 0 1 .00001-.9584l-.87737-.4798ZM17.0676 8.46687c.6166.60124 1.1438 1.29319 1.5599 2.05403l.8773-.4799c-.4641-.84873-1.0519-1.62011-1.7391-2.29011l-.6981.71598ZM11 16c-.749 0-1.47517-.0945-2.16748-.2721l-.24837.9687C9.35694 16.8948 10.1665 17 11 17v-1Zm0-10c.7815 0 1.5383.10293 2.2576.29568l.2588-.96593C12.7134 5.11459 11.8697 5 11 5v1Zm-5.68693 7.8829c-.78187-.6769-1.4412-1.4907-1.94053-2.4038l-.87737.4799c.55704 1.0185 1.29213 1.9257 2.16337 2.68l.65453-.7561Zm1.41612.9982a8.69964 8.69964 0 0 1-1.41612-.9982l-.65453.7561a9.7124 9.7124 0 0 0 1.57878 1.1128l.49187-.8707Zm-2.03146-.2115 1.49746 1.0556.57614-.8174-1.49746-1.0555-.57614.8173Zm8.55987-8.37392c.6719.18002 1.3116.43853 1.9088.76515l.4799-.87736c-.6662-.36431-1.38-.6528-2.1299-.85372l-.2588.96593Z"/><path stroke="currentColor" stroke-linecap="round" stroke-linejoin="round" d="M17.8424 4.09229 4.09244 17.8423"/><path stroke="currentColor" stroke-linecap="round" d="M8.25 11c0-1.51878 1.23122-2.75 2.75-2.75"/></svg>

<svg  viewBox="0 0 22 22" fill="none" xmlns="http://www.w3.org/2000/svg">
<path d="M19.0661 10.2809L19.5048 10.041L19.0661 10.2809ZM19.0661 11.7192L19.5048 11.9591L19.0661 11.7192ZM2.93387 10.2808L3.37255 10.5207L2.93387 10.2808ZM2.93385 11.7191L2.49517 11.959H2.49517L2.93385 11.7191ZM17.7657 7.75089C17.568 7.55811 17.2515 7.56211 17.0587 7.75982C16.8659 7.95754 16.8699 8.27409 17.0676 8.46687L17.7657 7.75089ZM8.83252 15.7279C8.56503 15.6594 8.29259 15.8206 8.224 16.0881C8.15542 16.3556 8.31666 16.628 8.58415 16.6966L8.83252 15.7279ZM13.387 5.81271L13.2576 6.29568L13.387 5.81271ZM6.48326 15.3165L6.23732 15.7518L6.77133 14.9078L6.48326 15.3165ZM3.37255 10.5207C4.84602 7.82647 7.70944 6 11 6V5C7.33005 5 4.13732 7.03825 2.49518 10.0409L3.37255 10.5207ZM18.6275 11.4793C17.154 14.1735 14.2906 16 11 16V17C14.67 17 17.8627 14.9618 19.5048 11.9591L18.6275 11.4793ZM18.6275 10.5209C18.7909 10.8196 18.7908 11.1805 18.6275 11.4793L19.5048 11.9591C19.8317 11.3613 19.8317 10.6388 19.5048 10.041L18.6275 10.5209ZM2.49518 10.0409C2.16828 10.6387 2.16827 11.3612 2.49517 11.959L3.37254 11.4791C3.20915 11.1804 3.20915 10.8195 3.37255 10.5207L2.49518 10.0409ZM17.0676 8.46687C17.6842 9.06811 18.2114 9.76006 18.6275 10.5209L19.5048 10.041C19.0407 9.19227 18.4529 8.42089 17.7657 7.75089L17.0676 8.46687ZM11 16C10.251 16 9.52483 15.9055 8.83252 15.7279L8.58415 16.6966C9.35694 16.8948 10.1665 17 11 17V16ZM11 6C11.7815 6 12.5383 6.10293 13.2576 6.29568L13.5164 5.32975C12.7134 5.11459 11.8697 5 11 5V6ZM5.31307 13.8829C4.5312 13.206 3.87187 12.3922 3.37254 11.4791L2.49517 11.959C3.05221 12.9775 3.7873 13.8847 4.65854 14.639L5.31307 13.8829ZM6.72919 14.8811C6.22351 14.5955 5.74928 14.2606 5.31307 13.8829L4.65854 14.639C5.14469 15.0598 5.67336 15.4332 6.23732 15.7518L6.72919 14.8811ZM4.69773 14.6696L6.19519 15.7252L6.77133 14.9078L5.27387 13.8523L4.69773 14.6696ZM13.2576 6.29568C13.9295 6.4757 14.5692 6.73421 15.1664 7.06083L15.6463 6.18347C14.9801 5.81916 14.2663 5.53067 13.5164 5.32975L13.2576 6.29568Z" fill="currentColor"/>
<path d="M17.8424 4.09229L4.09244 17.8423" stroke="currentColor" stroke-linecap="round" stroke-linejoin="round"/>
<path d="M8.25 11C8.25 9.48122 9.48122 8.25 11 8.25" stroke="currentColor" stroke-linecap="round"/>
</svg>
